images/patterns/5.svg

<?xml version="1.0" encoding="UTF-8"?>
<!DOCTYPE svg PUBLIC "-//W3C//DTD SVG 1.1//EN" "http://www.w3.org/Graphics/SVG/1.1/DTD/svg11.dtd">
<svg version="1.1" xmlns="http://www.w3.org/2000/svg" xmlns:xlink="http://www.w3.org/1999/xlink" x="0" y="0" width="120" height="120" viewBox="0, 0, 120, 120">
  <g id="Background">
    <rect x="0" y="0" width="120" height="120" fill="#FFFFFF"/>
  </g>
  <g id="Layer_3_Copy">
    <path d="M10,20 C4.477,20 0,15.523 0,10 C0,4.477 4.477,0 10,0 C15.523,0 20,4.477 20,10 C20,15.523 15.523,20 10,20 z" fill="#000000"/>
    <path d="M30,40 C24.477,40 20,35.523 20,30 C20,24.477 24.477,20 30,20 C35.523,20 40,24.477 40,30 C40,35.523 35.523,40 30,40 z" fill="#000000"/>
    <path d="M10,60 C4.477,60 -0,55.523 -0,50 C-0,44.477 4.477,40 10,40 C15.523,40 20,44.477 20,50 C20,55.523 15.523,60 10,60 z" fill="#000000"/>
    <path d="M30,80 C24.477,80 20,75.523 20,70 C20,64.477 24.477,60 30,60 C35.523,60 40,64.477 40,70 C40,75.523 35.523,80 30,80 z" fill="#000000"/>
    <path d="M10,100 C4.477,100 0,95.523 0,90 C0,84.477 4.477,80 10,80 C15.523,80 20,84.477 20,90 C20,95.523 15.523,100 10,100 z" fill="#000000"/>
    <path d="M30,120 C24.477,120 20,115.523 20,110 C20,104.477 24.477,100 30,100 C35.523,100 40,104.477 40,110 C40,115.523 35.523,120 30,120 z" fill="#000000"/>
    <path d="M50,20 C44.477,20 40,15.523 40,10 C40,4.477 44.477,-0 50,-0 C55.523,-0 60,4.477 60,10 C60,15.523 55.523,20 50,20 z" fill="#000000"/>
    <path d="M70,40 C64.477,40 60,35.523 60,30 C60,24.477 64.477,20 70,20 C75.523,20 80,24.477 80,30 C80,35.523 75.523,40 70,40 z" fill="#000000"/>
    <path d="M50,60 C44.477,60 40,55.523 40,50 C40,44.477 44.477,40 50,40 C55.523,40 60,44.477 60,50 C60,55.523 55.523,60 50,60 z" fill="#000000"/>
    <path d="M70,80 C64.477,80 60,75.523 60,70 C60,64.477 64.477,60 70,60 C75.523,60 80,64.477 80,70 C80,75.523 75.523,80 70,80 z" fill="#000000"/>
    <path d="M50,100 C44.477,100 40,95.523 40,90 C40,84.477 44.477,80 50,80 C55.523,80 60,84.477 60,90 C60,95.523 55.523,100 50,100 z" fill="#000000"/>
    <path d="M70,120 C64.477,120 60,115.523 60,110 C60,104.477 64.477,100 70,100 C75.523,100 80,104.477 80,110 C80,115.523 75.523,120 70,120 z" fill="#000000"/>
    <path d="M90,20 C84.477,20 80,15.523 80,10 C80,4.477 84.477,-0 90,-0 C95.523,-0 100,4.477 100,10 C100,15.523 95.523,20 90,20 z" fill="#000000"/>
    <path d="M110,40 C104.477,40 100,35.523 100,30 C100,24.477 104.477,20 110,20 C115.523,20 120,24.477 120,30 C120,35.523 115.523,40 110,40 z" fill="#000000"/>
    <path d="M90,60 C84.477,60 80,55.523 80,50 C80,44.477 84.477,40 90,40 C95.523,40 100,44.477 100,50 C100,55.523 95.523,60 90,60 z" fill="#000000"/>
    <path d="M110,80 C104.477,80 100,75.523 100,70 C100,64.477 104.477,60 110,60 C115.523,60 120,64.477 120,70 C120,75.523 115.523,80 110,80 z" fill="#000000"/>
    <path d="M90,100 C84.477,100 80,95.523 80,90 C80,84.477 84.477,80 90,80 C95.523,80 100,84.477 100,90 C100,95.523 95.523,100 90,100 z" fill="#000000"/>
    <path d="M110,120 C104.477,120 100,115.523 100,110 C100,104.477 104.477,100 110,100 C115.523,100 120,104.477 120,110 C120,115.523 115.523,120 110,120 z" fill="#000000"/>
  </g>
</svg>

<?xml version="1.0" encoding="utf-8"?>
<!-- Generator: Adobe Illustrator 22.0.1, SVG Export Plug-In . SVG Version: 6.00 Build 0)  -->
<svg version="1.1" id="Layer_1" xmlns="http://www.w3.org/2000/svg" xmlns:xlink="http://www.w3.org/1999/xlink" x="0px" y="0px"
	 viewBox="0 0 120 120" style="enable-background:new 0 0 120 120;" xml:space="preserve">
<g id="Layer_3_Copy">
	<path d="M10,20C4.5,20,0,15.5,0,10S4.5,0,10,0s10,4.5,10,10S15.5,20,10,20z"/>
	<path d="M30,40c-5.5,0-10-4.5-10-10s4.5-10,10-10s10,4.5,10,10S35.5,40,30,40z"/>
	<path d="M10,60C4.5,60,0,55.5,0,50s4.5-10,10-10s10,4.5,10,10S15.5,60,10,60z"/>
	<path d="M30,80c-5.5,0-10-4.5-10-10s4.5-10,10-10s10,4.5,10,10S35.5,80,30,80z"/>
	<path d="M10,100c-5.5,0-10-4.5-10-10s4.5-10,10-10s10,4.5,10,10S15.5,100,10,100z"/>
	<path d="M30,120c-5.5,0-10-4.5-10-10s4.5-10,10-10s10,4.5,10,10S35.5,120,30,120z"/>
	<path d="M50,20c-5.5,0-10-4.5-10-10S44.5,0,50,0s10,4.5,10,10S55.5,20,50,20z"/>
	<path d="M70,40c-5.5,0-10-4.5-10-10s4.5-10,10-10s10,4.5,10,10S75.5,40,70,40z"/>
	<path d="M50,60c-5.5,0-10-4.5-10-10s4.5-10,10-10s10,4.5,10,10S55.5,60,50,60z"/>
	<path d="M70,80c-5.5,0-10-4.5-10-10s4.5-10,10-10s10,4.5,10,10S75.5,80,70,80z"/>
	<path d="M50,100c-5.5,0-10-4.5-10-10s4.5-10,10-10s10,4.5,10,10S55.5,100,50,100z"/>
	<path d="M70,120c-5.5,0-10-4.5-10-10s4.5-10,10-10s10,4.5,10,10S75.5,120,70,120z"/>
	<path d="M90,20c-5.5,0-10-4.5-10-10S84.5,0,90,0s10,4.5,10,10S95.5,20,90,20z"/>
	<path d="M110,40c-5.5,0-10-4.5-10-10s4.5-10,10-10s10,4.5,10,10S115.5,40,110,40z"/>
	<path d="M90,60c-5.5,0-10-4.5-10-10s4.5-10,10-10s10,4.5,10,10S95.5,60,90,60z"/>
	<path d="M110,80c-5.5,0-10-4.5-10-10s4.5-10,10-10s10,4.5,10,10S115.5,80,110,80z"/>
	<path d="M90,100c-5.5,0-10-4.5-10-10s4.5-10,10-10s10,4.5,10,10S95.5,100,90,100z"/>
	<path d="M110,120c-5.5,0-10-4.5-10-10s4.5-10,10-10s10,4.5,10,10S115.5,120,110,120z"/>
</g>
</svg>
